css/images/noun-moscow-1039859.svg

<svg xmlns="http://www.w3.org/2000/svg" xmlns:xlink="http://www.w3.org/1999/xlink" version="1.1" x="0px" y="0px" viewBox="0 0 150 187.5" enable-background="new 0 0 150 150" xml:space="preserve"><g><g><path d="M139.4737396,152.8397522H10.5262527v-29.5838165H44.538105V101.471611h16.7998428V48.1420937h28.4030876v53.3295174    h15.7214355v21.7935181l34.0112686-0.0091934V152.8397522z M12.8808184,150.4851837h124.2383652v-24.8746872l-34.0112839,0.009201    v-21.7935257H87.3864746V50.4966583H63.6925125v53.3295135H46.8926697v21.7843246H12.8808184V150.4851837z"/></g><g><polygon points="87.5652466,49.9425087 75.4187775,30.4932041 63.5194855,49.9344597 61.5109749,48.7042923     75.3980789,26.0163116 89.5622559,48.6962433   "/></g><g><path d="M88.0078812,35.9381371l-12.5994568-9.1538315l-12.6000252,9.1538315l4.812603-14.8114567l-12.598877-9.1538296h15.5737    l4.8125992-14.8126049l4.8126068,14.8126049h15.5737l-12.5994568,9.1538296L88.0078812,35.9381371z M62.2686234,14.3274155    l8.1208344,5.9002075L67.28759,29.7734985l8.1208344-5.9002075l8.1202621,5.9002075l-3.10186-9.5458755l8.1214066-5.9002075    h-10.037941l-3.1018677-9.5470257l-3.10186,9.5470257H62.2686234z"/></g><g><rect x="58.2015953" y="116.0071411" width="2.3545649" height="26.3049049"/></g><g><rect x="90.2606964" y="116.0071411" width="2.3545649" height="26.3049049"/></g><g><rect x="74.2311478" y="116.0071411" width="2.3545649" height="26.3049049"/></g></g><text x="0" y="165" fill="#000000" font-size="5px" font-weight="bold" font-family="'Helvetica Neue', Helvetica, Arial-Unicode, Arial, Sans-serif">Created by DinosoftLabs</text><text x="0" y="170" fill="#000000" font-size="5px" font-weight="bold" font-family="'Helvetica Neue', Helvetica, Arial-Unicode, Arial, Sans-serif">from the Noun Project</text></svg>

<svg width="150" height="188" viewBox="0 0 150 188" fill="none" xmlns="http://www.w3.org/2000/svg">
<g clip-path="url(#clip0_1_258)">
<path d="M139.474 152.84H10.5262V123.256H44.5381V101.472H61.3379V48.1421H89.741V101.472H105.462V123.265L139.474 123.256V152.84ZM12.8808 150.485H137.119V125.61L103.108 125.62V103.826H87.3865V50.4967H63.6925V103.826H46.8927V125.61H12.8808V150.485Z" fill="black"/>
<path d="M87.5652 49.9425L75.4188 30.4932L63.5195 49.9345L61.511 48.7043L75.3981 26.0163L89.5623 48.6962L87.5652 49.9425Z" fill="black"/>
<path d="M88.0079 35.9381L75.4084 26.7843L62.8084 35.9381L67.621 21.1267L55.0221 11.9729H70.5958L75.4084 -2.83975L80.221 11.9729H95.7947L83.1953 21.1267L88.0079 35.9381ZM62.2686 14.3274L70.3895 20.2276L67.2876 29.7735L75.4084 23.8733L83.5287 29.7735L80.4268 20.2276L88.5482 14.3274H78.5103L75.4084 4.78039L72.3066 14.3274H62.2686Z" fill="black"/>
<path d="M60.5561 116.007H58.2016V142.312H60.5561V116.007Z" fill="black"/>
<path d="M92.6153 116.007H90.2607V142.312H92.6153V116.007Z" fill="black"/>
<path d="M76.5857 116.007H74.2311V142.312H76.5857V116.007Z" fill="black"/>
</g>
<defs>
<clipPath id="clip0_1_258">
<rect width="150" height="187.5" fill="white"/>
</clipPath>
</defs>
</svg>
